X:1
T: Glengrant
C:J. Scott Skinner
R:Strathspey
Q: 128
K:A
M:4/4
L:1/16
|:E2|A3c ea3 eA3 c3A|a3A c3A GB3 B3c|A3c ea3 fa3 d3f|ecA2 d3B cA3 A3E|
A3c ea3 eA3 c3A|a3A c3A GB3 B3c|A3c eA3 DFA2 d3f|ecA2 d3B cA3 A2c2|
fc3 a3g f4 c3^e|fc3 c3B AF3 F3^d|eB3 g3f e4 B3^d|eB3 B3A GE3 E3e|
fc3 a3g f4 c3B|A3c ((3e2f2g2) ((3a2e2d2) ((3c2B2A2) |D3F B2D2 CE3 A2a2|ecA2 d3B cA3 A2:|
